X:118
T:Meenafanad Reel*
B:NFID.189 ("untitled reel")
118meen
S:DOD
L:1/8
M:C
R:reel
Q:360
K:D
f|dBBA FEFA|dcde fgfe|dBBA FEFA|(3Bcd cA Bafe|
dBBA FEFA|dcde (3fga fe|dBBA FEFA|(3Bcd cA B3||
c|d2Bc dcde|fbbf afea|fdBc dcde|fbaf (3efe de|
fdBc dcde|fbbf a2fa|bfff afff|bfaf eafe||

%%%

